svgs/thin/up-from-line.svg

<svg xmlns="http://www.w3.org/2000/svg" viewBox="0 0 384 512"><!--! Font Awesome Pro 6.0.0-alpha3 by @fontawesome - https://fontawesome.com License - https://fontawesome.com/license (Commercial License) --><path d="M8 480h368c4.418 0 8-3.582 8-8s-3.582-8-8-8H8C3.582 464 0 467.6 0 472S3.582 480 8 480zM56 223.8H128v128.1c0 17.69 14.33 32.04 32 32.04h64c17.67 0 32-14.35 32-32.04V223.8h72c9.578 0 18.25-5.708 22.05-14.51c3.781-8.803 1.984-19.03-4.594-26l-136-144.1C204.9 34.4 198.5 32 192 32S179.1 34.4 174.5 39.2l-136 144.1c-6.578 6.973-8.375 17.2-4.594 26C37.75 218.1 46.42 223.8 56 223.8zM50.18 194.3l135.1-144.1C187.5 48.82 189.6 48 192 48s4.527 .8164 5.816 2.184l135.1 144.1c2.201 2.332 2.801 5.75 1.541 8.686C334.1 205.9 331.2 207.8 328 207.8H240v144.1c0 8.836-7.178 16.02-16 16.02H160c-8.822 0-16-7.188-16-16.02V207.8H56c-3.197 0-6.084-1.902-7.346-4.826C47.38 200 47.98 196.6 50.18 194.3z"/></svg>

<svg xmlns="http://www.w3.org/2000/svg" viewBox="0 0 384 512"><!-- Font Awesome Pro 6.0.0-alpha2 by @fontawesome - https://fontawesome.com License - https://fontawesome.com/license (Commercial License) --><path d="M8 480H376C380.418 480 384 476.418 384 472S380.418 464 376 464H8C3.582 464 0 467.582 0 472S3.582 480 8 480ZM56 223.818H128V351.908C128 369.596 142.328 383.932 160 383.932H224C241.674 383.932 256 369.596 256 351.908V223.818H328C337.578 223.818 346.25 218.109 350.047 209.307C353.828 200.504 352.031 190.277 345.453 183.305L209.453 39.201C204.922 34.4 198.461 32 192 32S179.078 34.4 174.547 39.201L38.547 183.305C31.969 190.277 30.172 200.504 33.953 209.307C37.75 218.109 46.422 223.818 56 223.818ZM50.184 194.287L186.182 50.184C187.473 48.816 189.648 48 192 48S196.527 48.816 197.816 50.184L333.814 194.285C336.016 196.617 336.615 200.035 335.355 202.971C334.084 205.916 331.197 207.818 328 207.818H240V351.908C240 360.744 232.822 367.932 224 367.932H160C151.178 367.932 144 360.744 144 351.908V207.818H56C52.803 207.818 49.916 205.916 48.654 202.992C47.385 200.035 47.984 196.617 50.184 194.287Z"/></svg>
